weblate_web/static/img/icon-bugs.svg

<svg viewBox="-1 -1 50 56"><path fill="#2eccaa" d="M30 27H18v-6h12m0 18H18v-6h12m18-18h-8.43a17.954 17.954 0 00-5.46-5.88L39 4.23 34.77 0l-6.51 6.51C26.88 6.18 25.5 6 24 6s-2.88.18-4.23.51L13.23 0 9 4.23l4.86 4.89A18.186 18.186 0 008.43 15H0v6h6.27c-.15.99-.27 1.98-.27 3v3H0v6h6v3c0 1.02.12 2.01.27 3H0v6h8.43c3.12 5.37 8.91 9 15.57 9s12.45-3.63 15.57-9H48v-6h-6.27c.15-.99.27-1.98.27-3v-3h6v-6h-6v-3c0-1.02-.12-2.01-.27-3H48z"/></svg>

<?xml version="1.0" encoding="UTF-8" standalone="no"?>
<svg
   xmlns:dc="http://purl.org/dc/elements/1.1/"
   xmlns:cc="http://creativecommons.org/ns#"
   xmlns:rdf="http://www.w3.org/1999/02/22-rdf-syntax-ns#"
   xmlns:svg="http://www.w3.org/2000/svg"
   xmlns="http://www.w3.org/2000/svg"
   xmlns:sodipodi="http://sodipodi.sourceforge.net/DTD/sodipodi-0.dtd"
   xmlns:inkscape="http://www.inkscape.org/namespaces/inkscape"
   version="1.1"
   width="48"
   height="54"
   viewBox="-1 -1 50 56"
   id="svg4"
   sodipodi:docname="icon-bugs.svg"
   inkscape:version="0.92.4 (5da689c313, 2019-01-14)">
  <metadata
     id="metadata10">
    <rdf:RDF>
      <cc:Work
         rdf:about="">
        <dc:format>image/svg+xml</dc:format>
        <dc:type
           rdf:resource="http://purl.org/dc/dcmitype/StillImage" />
        <dc:title></dc:title>
      </cc:Work>
    </rdf:RDF>
  </metadata>
  <defs
     id="defs8" />
  <sodipodi:namedview
     pagecolor="#ffffff"
     bordercolor="#666666"
     borderopacity="1"
     objecttolerance="10"
     gridtolerance="10"
     guidetolerance="10"
     inkscape:pageopacity="0"
     inkscape:pageshadow="2"
     inkscape:window-width="1920"
     inkscape:window-height="1027"
     id="namedview6"
     showgrid="false"
     fit-margin-top="0"
     fit-margin-left="0"
     fit-margin-right="0"
     fit-margin-bottom="0"
     inkscape:zoom="9.8333333"
     inkscape:cx="2.9661017"
     inkscape:cy="21.20339"
     inkscape:window-x="-8"
     inkscape:window-y="-8"
     inkscape:window-maximized="1"
     inkscape:current-layer="svg4" />
  <path
     d="M 30,27 H 18 v -6 h 12 m 0,18 H 18 V 33 H 30 M 48,15 H 39.57 C 38.22,12.66 36.36,10.65 34.11,9.12 L 39,4.23 34.77,0 28.26,6.51 C 26.88,6.18 25.5,6 24,6 22.5,6 21.12,6.18 19.77,6.51 L 13.23,0 9,4.23 13.86,9.12 C 11.64,10.65 9.78,12.66 8.43,15 H 0 v 6 H 6.27 C 6.12,21.99 6,22.98 6,24 v 3 H 0 v 6 h 6 v 3 c 0,1.02 0.12,2.01 0.27,3 H 0 v 6 h 8.43 c 3.12,5.37 8.91,9 15.57,9 6.66,0 12.45,-3.63 15.57,-9 H 48 V 39 H 41.73 C 41.88,38.01 42,37.02 42,36 v -3 h 6 v -6 h -6 v -3 c 0,-1.02 -0.12,-2.01 -0.27,-3 H 48 Z"
     id="path2"
     inkscape:connector-curvature="0"
     style="stroke-width:1;fill:#2eccaa;fill-opacity:1" />
</svg>
